assets/v1/icons/groovy.svg

<svg xmlns="http://www.w3.org/2000/svg" width="16" height="16" viewBox="0 0 16 16">
  <g fill="none" fill-rule="evenodd">
    <polygon fill="#9AA7B0" fill-opacity=".8" points="7 1 3 5 7 5"/>
    <path fill="#9AA7B0" fill-opacity=".8" d="M8,1 L8,6 L3,6 L3,8.033 C3.164,8.014 3.33,8 3.5,8 C5.981,8 8,10.019 8,12.5 C8,13.431 7.707,14.286 7.217,15 L13,15 L13,1 L8,1 Z"/>
    <path fill="#62B543" fill-opacity=".7" d="M7,12.5 C7,14.433 5.433,16 3.5,16 C1.567,16 0,14.433 0,12.5 C0,10.567 1.567,9 3.5,9 C5.433,9 7,10.567 7,12.5"/>
    <path fill="#231F20" fill-opacity=".7" d="M3.50858455,15 C1.99615361,15 1.00167847,13.9226519 1.00167847,12.5138122 L1.00167847,12.5 C1.00167847,11.1464088 2.03759008,10 3.4947724,10 C4.33731383,10 4.85526963,10.2348066 5.3525072,10.6560773 L4.81383317,11.2983425 C4.44090499,10.9875691 4.07488289,10.7872928 3.46024201,10.7872928 C2.56935803,10.7872928 1.89256245,11.5607735 1.89256245,12.4861878 L1.89256245,12.5 C1.89256245,13.4944751 2.5486398,14.2265193 3.53620886,14.2265193 C3.99200996,14.2265193 4.40637461,14.0814917 4.70333593,13.8604972 L4.70333593,12.9627072 L3.46714809,12.9627072 L3.46714809,12.2168508 L5.52515914,12.2168508 L5.52515914,14.2472376 C5.0486398,14.6546961 4.36493814,15 3.50858455,15 Z"/>
  </g>
</svg>

<svg xmlns="http://www.w3.org/2000/svg" width="16" height="16" viewBox="0 0 16 16"><g fill="none" fill-rule="evenodd"><path fill="#9AA7B0" fill-opacity=".8" d="M7 1 3 5h4z"/><path fill="#9AA7B0" fill-opacity=".8" d="M8 1v5H3v2.033c.164-.019.33-.033.5-.033C5.981 8 8 10.019 8 12.5c0 .931-.293 1.786-.783 2.5H13V1z"/><path fill="#62B543" fill-opacity=".7" d="M7 12.5a3.5 3.5 0 1 1-7 0 3.5 3.5 0 0 1 7 0"/><path fill="#231F20" fill-opacity=".7" d="M3.509 15c-1.513 0-2.507-1.077-2.507-2.486V12.5c0-1.354 1.036-2.5 2.493-2.5.842 0 1.36.235 1.858.656l-.54.642c-.372-.31-.738-.51-1.353-.51-.89 0-1.567.773-1.567 1.698v.014c0 .994.656 1.727 1.643 1.727.456 0 .87-.146 1.167-.367v-.897H3.467v-.746h2.058v2.03A3.08 3.08 0 0 1 3.51 15"/></g></svg>
